icons/arrow-square-downrightB.svg

<svg width="24" height="24" viewBox="0 0 24 24" fill="none" xmlns="http://www.w3.org/2000/svg">
<path d="M21 9V15C21 18.3 18.3 21 15 21H9C5.7 21 3 18.3 3 15V9C3 5.7 5.7 3 9 3H15C18.3 3 21 5.6 21 9Z" fill="black"/>
<path fill-rule="evenodd" clip-rule="evenodd" d="M9 3.75C6.11421 3.75 3.75 6.11421 3.75 9V15C3.75 17.8858 6.11421 20.25 9 20.25H15C17.8858 20.25 20.25 17.8858 20.25 15V9C20.25 6.02236 17.894 3.75 15 3.75H9ZM2.25 9C2.25 5.28579 5.28579 2.25 9 2.25H15C18.706 2.25 21.75 5.17764 21.75 9V15C21.75 18.7142 18.7142 21.75 15 21.75H9C5.28579 21.75 2.25 18.7142 2.25 15V9Z" fill="black"/>
<path d="M14.4426 10.437L14.4426 13.9725C14.4426 14.2553 14.2304 14.4675 13.9476 14.4675L10.4121 14.4675" fill="black"/>
<path fill-rule="evenodd" clip-rule="evenodd" d="M13.6926 13.7175L10.4121 13.7175C9.99786 13.7175 9.66207 14.0533 9.66207 14.4675C9.66207 14.8817 9.99786 15.2175 10.4121 15.2175L13.9476 15.2175C14.6447 15.2175 15.1926 14.6695 15.1926 13.9725L14.4426 13.9725L15.1926 13.9725L15.1926 10.437C15.1926 10.0227 14.8568 9.68696 14.4426 9.68696C14.0284 9.68696 13.6926 10.0227 13.6926 10.437L13.6926 13.7175Z" fill="white"/>
<path fill-rule="evenodd" clip-rule="evenodd" d="M14.3366 14.4321C14.0437 14.725 13.5688 14.725 13.2759 14.4321L9.03325 10.1894C8.74036 9.89653 8.74036 9.42166 9.03325 9.12876C9.32615 8.83587 9.80102 8.83587 10.0939 9.12876L14.3366 13.3714C14.6294 13.6643 14.6294 14.1392 14.3366 14.4321Z" fill="white"/>
</svg>

<svg xmlns="http://www.w3.org/2000/svg" fill="none" viewBox="0 0 24 24">
  <path fill="#000" d="M21 9v6c0 3.3-2.7 6-6 6H9c-3.3 0-6-2.7-6-6V9c0-3.3 2.7-6 6-6h6c3.3 0 6 2.6 6 6Z"/>
  <path fill="#000" fill-rule="evenodd" d="M9 3.75C6.114 3.75 3.75 6.114 3.75 9v6c0 2.886 2.364 5.25 5.25 5.25h6c2.886 0 5.25-2.364 5.25-5.25V9c0-2.978-2.356-5.25-5.25-5.25H9ZM2.25 9c0-3.714 3.036-6.75 6.75-6.75h6c3.706 0 6.75 2.928 6.75 6.75v6c0 3.714-3.036 6.75-6.75 6.75H9c-3.714 0-6.75-3.036-6.75-6.75V9Z" clip-rule="evenodd"/>
  <path fill="#000" d="M14.443 10.437v3.536a.483.483 0 0 1-.495.494h-3.536"/>
  <path fill="#fff" fill-rule="evenodd" d="M13.693 13.717h-3.28a.75.75 0 1 0 0 1.5h3.535c.697 0 1.245-.548 1.245-1.245h-.75.75v-3.535a.75.75 0 1 0-1.5 0v3.28Z" clip-rule="evenodd"/>
  <path fill="#fff" fill-rule="evenodd" d="M14.337 14.432a.75.75 0 0 1-1.061 0L9.033 10.19a.75.75 0 1 1 1.06-1.06l4.244 4.242a.75.75 0 0 1 0 1.061Z" clip-rule="evenodd"/>
</svg>
